!!!OTL: Hirtenbub (2-35) S. 195
!!!id: P0936
**kern
*clefG2
*k[f#]
*G:
*M3/4
{8d
8g
8d
8e
8f#
8g
=2
4g
4b
8f#
8g
=3
4.a}
=4
{8g
8f#
8g
=5
*M4/4
8a
8dd
8dd
8cc
4b
4a
=6
8g
8g}
8r
=7
{8f#
8e
8d
=8
8g
8b
4dd
8g
8a
8b
8a
=9yy
8g
=10
4.g}
==
*-
!!!minrhy: 8
!!!meters: 3/4 4/4]  ZZ[3
!!!cut: Hirtenbub (2-35) S. 195
!!!reg: Lothringen
!!!trd: PINCK, Louis: Verklingende Weisen, Bd 2, Metz 1928
!!!rhy1: X(XXX)  X_X_XX  X_.
!!!rhy2: XXX  XXXXX_X_  XX0
!!!key: P0936  08  G 3/4 4/4]  ZZ[3
!!!mod: HEPTATONIK IONISCH]  AMBITUS[8
!!!kad: 211
!!!akz: 12_231_11_
!!!fot: 'a__b__bs"
!!!for: 'a__b__c__
!!!fok: '/__^__Sa_
!! PHRAS[AUFTAKTIG]
!!!fkt: Fenstergang, vergebliche Werbung
!! LOTH VKL
!! PR[19] 2K[8] 2G[15] 3K[8] 3G[4] 4A[4] 4Ü[0] 5A[0] 6K[0] 6G[0]
!! 7K[0] 7G[0] 8A[0] MEHR[0] SI[38] ABS[26] SR[23] SP[15]
!! ST[8] 2k[8] 2g[19] 3k[8] 3g[4] 4d[0] 4ü[0] 5d[4] 6k[0] 6g[0]
!! 7k[0] 7g[0] 8d[0] mehr[0] si[42] dm[-4] sr[27] sp[15]
!! 1F[4] 2F[30] 3F[56] 4F[7] LF[0] 2P[4] 3P[0] 4P[0] TRI[0] DF[5] AB[27]
!! TF[0] U3K[0] U3[0] U4[0] U4Ü[0] U5[0] U6K[0] U6[0] U7K[0] U7[0]
!! N1[19] N2K[0] N2[19] N3K[0] N3[33] N4[15] N4Ü[0] N5[15] N6K[0] N6[0]
!!!n7k: 0] N7[0] O1[0] O2K[0] O2[0] O3K[0] O3[0] HÖ[0
